telegram.svg

<svg width="40" height="40" viewBox="0 0 40 40" fill="none" xmlns="http://www.w3.org/2000/svg">
<path d="M20 40C31.0483 40 40 31.0483 40 20C40 8.95167 31.0483 0 20 0C8.95167 0 0 8.95167 0 20C0 31.0483 8.95167 40 20 40ZM9.15167 19.5667L28.435 12.1317C29.33 11.8083 30.1117 12.35 29.8217 13.7033L29.8233 13.7017L26.54 29.17C26.2967 30.2667 25.645 30.5333 24.7333 30.0167L19.7333 26.3317L17.3217 28.655C17.055 28.9217 16.83 29.1467 16.3133 29.1467L16.6683 24.0583L25.935 15.6867C26.3383 15.3317 25.845 15.1317 25.3133 15.485L13.8617 22.695L8.925 21.155C7.85333 20.815 7.83 20.0833 9.15167 19.5667V19.5667Z" fill="#286877"/>
</svg>

<svg width="40" height="40" fill="none" xmlns="http://www.w3.org/2000/svg"><path d="M20 40c11.048 0 20-8.952 20-20S31.048 0 20 0 0 8.952 0 20s8.952 20 20 20zM9.152 19.567l19.283-7.435c.895-.324 1.677.218 1.387 1.571l.001-.001L26.54 29.17c-.243 1.097-.895 1.363-1.807.847l-5-3.685-2.411 2.323c-.267.267-.492.492-1.009.492l.355-5.089 9.267-8.371c.403-.355-.09-.555-.622-.202l-11.451 7.21-4.937-1.54c-1.072-.34-1.095-1.072.227-1.588z" fill="#286877"/></svg>
